X:1
%
T:Gu mo slan a chi mi mo challin dileas doun
M:C
L:1/8
R:"A Pastoral Melody"
Q:"Tenderly"
B:James Logan - The Scottish Gael: or, Celtic manners preserved 
B:among the Highlanders, vol. 2 (London, 1831, No. VII)
Z:AK/Fiddler's Companion
K:F
D|F2 G>B {A}d2 c>B|A2 DTE {DE}G2 zA|TG>F GA {A}f2 e>c|
d>cA>c d2 zD|F2 G>B {A}f2 e>c|d>cA>c d2 zA|
c>d{e}c>B {A}d2 cB|A2 {B,}DTE {DE}F2:||(A/B/)|c>d{e}c>B {A}d2 c>B|
A2 DTE {DE}!fermata!F2 (3cde|Tf>efg (fe)(dc)|TA>GAc d2 z(A/B/)|
cA (cd/e/) f3a|g>f{c}e>d !fermata!c2 Td/(^c/d/e/)|f>ed>c {A}!fermata!d2 cB|A2 {B,}D>T(E {DE}F2)||

